!!!COM: Robert Schumann
!!!CNT: Deutscher
!!!TXO: Deutsche 
!!!OTL: Ich will meine Seele tauchen
!!!OPR: Dichterliebe
!!!OPS: Opus 48
!!!ONM: No. 5
!!!LYR: Heine
!!!ENC: Brian Bice
!!!YOR: Sa2mtliche Lieder, vol. 1, C.F. Peters
!!!ODT: 1840/
!!NB: Vocal melody and text only encoded.
**kern	**silbe
*clefG2	*
*k[f#c#]	*
*M2/4	*
=0	=0
4..r	.
{16b	{Ich
=1	=1
8b	will
16b	mei-
16b	-ne
(8a#	See-
16b)	|
16cc#	-le
=2	=2
4dd	tau-
8b}	-chen}
{16b	{in
16b	den
=3	=3
8.b	Kelch
16b	der
8a#	Lei-
16b	-lie
16cc#	hin-
=4	=4
4dd}	-ein;}
8r	.
16r	.
{16dd	{die
=5	=5
8dd	Li-
16dd	-lie
16dd	soll
(8cc#	klin-
16dd)	|
16ee	-gend
=6	=6
4ff#	hau-
8dd}	-chen}
{8dd	{ein
=7	=7
8ee	Leid
16dd	von
16dd	der
8cc#	Lieb-
8b	-sten
=8	=8
8a#}	mein.}
8r	.
8r	.
{8b	{Das
=9	=9
8b	Lied
8b	soll
8a#	schau-
16b	-ern
16cc#	und
=10	=10
4dd	be-
8b}	-ben,}
{16b	{wie
16b	der
=11	=11
8.b	Kuss
16b	von
(8a#	ih-
16b)	|
16cc#	-rem
=12	=12
4dd}	Mund,}
8r	.
{8dd	{den
=13	=13
8.dd	sie
16dd	mir
(8cc#	einst
16dd)	|
16ee	ge-
=14	=14
4ff#	-ge-
8dd}	-ben}
{8dd	{in
=15	=15
12ee	wun-
12ee	-der-
12dd	-bar
8.cc#	su2-
16a#	-sser
=16	=16
4b}	Stund'.}
4r	.
*-	*-
